build/image/customers_icon.svg

<svg width="56" height="40" viewBox="0 0 56 40" fill="none" xmlns="http://www.w3.org/2000/svg">
<g opacity="0.3">
<path d="M33.1729 34.375C35.2757 37.4583 38.5981 39 43.1402 39C46.6729 39 49.5327 38.0417 51.7196 36.125C53.9065 34.125 55 31.5 55 28.25C55 24.8333 53.9906 22.2083 51.972 20.375C49.9533 18.4583 47.2617 17.5 43.8972 17.5C39.9439 17.5 36.8738 18.7917 34.6869 21.375C34.5187 20.7917 34.4346 19.875 34.4346 18.625C34.4346 17.0417 34.6449 15.6667 35.0654 14.5C35.7383 12.4167 36.9159 10.4583 38.5981 8.625C40.3645 6.70833 42.3411 5.25 44.528 4.25L43.3925 2C39.0187 4 35.6963 6.83333 33.4252 10.5C31.1542 14.1667 30.0187 18.1667 30.0187 22.5C30.0187 25 30.3131 27.2917 30.9019 29.375C31.4907 31.4583 32.2477 33.125 33.1729 34.375Z" stroke="#00788A" stroke-width="2"/>
<path d="M4.15421 34.375C6.25701 37.4583 9.57944 39 14.1215 39C17.6542 39 20.514 38.0417 22.7009 36.125C24.8878 34.125 25.9813 31.5 25.9813 28.25C25.9813 24.8333 24.972 22.2083 22.9533 20.375C20.9346 18.4583 18.243 17.5 14.8785 17.5C10.9252 17.5 7.85514 18.7917 5.66822 21.375C5.5 20.7917 5.41589 19.875 5.41589 18.625C5.41589 17.0417 5.62617 15.6667 6.04673 14.5C6.71963 12.4167 7.8972 10.4583 9.57944 8.625C11.3458 6.70833 13.3224 5.25 15.5093 4.25L14.3738 2C10 4 6.67757 6.83333 4.40654 10.5C2.13551 14.1667 1 18.1667 1 22.5C1 25 1.29439 27.2917 1.88318 29.375C2.47196 31.4583 3.22897 33.125 4.15421 34.375Z" stroke="#00788A" stroke-width="2"/>
</g>
</svg>

<svg width="56" height="40" fill="none" xmlns="http://www.w3.org/2000/svg"><path d="M33.173 34.375C35.276 37.458 38.598 39 43.14 39c3.533 0 6.393-.958 8.58-2.875 2.187-2 3.28-4.625 3.28-7.875 0-3.417-1.01-6.042-3.028-7.875-2.019-1.917-4.71-2.875-8.075-2.875-3.953 0-7.023 1.292-9.21 3.875-.168-.583-.252-1.5-.252-2.75 0-1.583.21-2.958.63-4.125.673-2.083 1.85-4.042 3.533-5.875 1.767-1.917 3.743-3.375 5.93-4.375L43.392 2c-4.373 2-7.696 4.833-9.967 8.5-2.27 3.667-3.406 7.667-3.406 12 0 2.5.294 4.792.883 6.875s1.346 3.75 2.27 5Zm-29.019 0C6.257 37.458 9.58 39 14.121 39c3.533 0 6.393-.958 8.58-2.875 2.187-2 3.28-4.625 3.28-7.875 0-3.417-1.009-6.042-3.028-7.875-2.018-1.917-4.71-2.875-8.074-2.875-3.954 0-7.024 1.292-9.21 3.875-.169-.583-.253-1.5-.253-2.75 0-1.583.21-2.958.63-4.125.674-2.083 1.851-4.042 3.533-5.875 1.767-1.917 3.743-3.375 5.93-4.375L14.374 2C10 4 6.678 6.833 4.407 10.5 2.136 14.167 1 18.167 1 22.5c0 2.5.294 4.792.883 6.875s1.346 3.75 2.271 5Z" opacity=".3" stroke="#00788A" stroke-width="2"/></svg>
